X:12
T:Cuz's
Z: id:dc-polka-10
M:2/4
L:1/8
K:E Dorian
E>F GA|Be B2|AF DF|EF DF|!
E>F GA|Be B2|AF DF|E2 E2:|!
e2 B2|ee B2|AF DF|EF DF|!
[1 e2 B2|ee B2|AF DF|E2 E2:|!
[2 E>F GA|Be B2|AF DF|E2 E2|]!

